X: 3388
T: TRAB TRAB
%R: march
B: James Kerr "Merry Melodies" v.3 p.43 #388
Z: 2016 John Chambers <jc:trillian.mit.edu>
M: 2/4
L: 1/8
K: D
uA |\
AABc | (d2A)A | AeBc | d3A |\
AABc | (d2A)f | edBe | A3 ::\
A |\
AeBc | (d2A)A | AeBc | d3f |\
edcB | AdFB |[1 AGEB | A3 :|[2 AGEc | d3 |]

%%sep 1 1 500
%%sep 1 1 500

